app/assets/images/remix_icon/health/virus-fill.svg

<svg viewBox="0 0 24 24" xmlns="http://www.w3.org/2000/svg"><path d="M13.7163 1.94727L17.4506 3.38074L16.7339 5.2479L15.8003 4.88928L15.0539 6.83418C15.8328 7.29566 16.4983 7.92829 16.9986 8.68026L18.9014 7.83237L18.4947 6.91882L20.3218 6.10535L21.9487 9.75953L20.1216 10.573L19.7149 9.65946L17.8126 10.5069C17.9348 10.9842 17.9998 11.4844 17.9998 11.9998C17.9998 12.4061 17.9594 12.8029 17.8825 13.1865L19.8265 13.9325L20.1852 12.9996L22.0523 13.7163L20.6189 17.4506L18.7517 16.7339L19.1094 15.8007L17.1654 15.0539C16.7039 15.8328 16.0713 16.4983 15.3194 16.9986L16.1672 18.9014L17.0808 18.4947L17.8943 20.3218L14.2401 21.9487L13.4266 20.1216L14.3402 19.7149L13.4927 17.8126C13.0154 17.9348 12.5152 17.9998 11.9998 17.9998C11.5932 17.9998 11.196 17.9594 10.8121 17.8823L10.0662 19.827L11 20.1852L10.2833 22.0523L6.54897 20.6189L7.2657 18.7517L8.19803 19.1098L8.9457 17.1654C8.16683 16.7039 7.50133 16.0713 7.00097 15.3194L5.09818 16.1672L5.50492 17.0808L3.67782 17.8943L2.05088 14.2401L3.87797 13.4266L4.28379 14.3406L6.18702 13.4927C6.06479 13.0154 5.99981 12.5152 5.99981 11.9998C5.99981 11.5935 6.04018 11.1967 6.11714 10.8131L4.17174 10.0666L3.81443 11L1.94727 10.2833L3.38074 6.54897L5.2479 7.2657L4.88888 8.19844L6.83418 8.9457C7.29566 8.16683 7.92829 7.50133 8.68026 7.00097L7.83237 5.09818L6.91882 5.50492L6.10535 3.67782L9.75953 2.05088L10.573 3.87797L9.65946 4.28471L10.5069 6.18702C10.9842 6.06479 11.4844 5.99981 11.9998 5.99981C12.4061 5.99981 12.8029 6.04018 13.1865 6.11714L13.9321 4.17215L12.9996 3.81443L13.7163 1.94727ZM10.1338 13.2319C9.85764 13.7101 10.0215 14.3217 10.4998 14.5979C10.9781 14.874 11.5897 14.7101 11.8658 14.2319C12.142 13.7536 11.9781 13.142 11.4998 12.8658C11.0215 12.5897 10.4099 12.7536 10.1338 13.2319ZM13.9998 10.9998C13.4475 10.9998 12.9998 11.4475 12.9998 11.9998C12.9998 12.5521 13.4475 12.9998 13.9998 12.9998C14.5521 12.9998 14.9998 12.5521 14.9998 11.9998C14.9998 11.4475 14.5521 10.9998 13.9998 10.9998ZM10.4998 9.40173C10.0215 9.67787 9.85764 10.2895 10.1338 10.7678C10.4099 11.246 11.0215 11.4099 11.4998 11.1338C11.9781 10.8576 12.142 10.246 11.8658 9.76776C11.5897 9.28946 10.9781 9.12559 10.4998 9.40173Z"/></svg>

<svg xmlns="http://www.w3.org/2000/svg" viewBox="0 0 24 24">
    <g>
        <path fill="none" d="M0 0H24V24H0z"/>
        <path d="M13.717 1.947l3.734 1.434-.717 1.867-.934-.359-.746 1.945c.779.462 1.444 1.094 1.945 1.846l1.903-.847-.407-.914 1.827-.813 1.627 3.654-1.827.813-.407-.913-1.902.847c.122.477.187.978.187 1.493 0 .406-.04.803-.117 1.187l1.944.746.358-.933 1.868.717-1.434 3.734-1.867-.717.358-.933-1.944-.747c-.462.779-1.094 1.444-1.846 1.945l.847 1.903.914-.407.813 1.827-3.654 1.627-.813-1.827.913-.407-.847-1.902c-.477.122-.978.187-1.493.187-.407 0-.804-.04-1.188-.118l-.746 1.945.934.358-.717 1.868-3.734-1.434.717-1.867.932.358.748-1.944C8.167 16.704 7.502 16.072 7 15.32l-1.903.847.407.914-1.827.813-1.627-3.654 1.827-.813.406.914 1.903-.848C6.065 13.016 6 12.515 6 12c0-.406.04-.803.117-1.187l-1.945-.746-.357.933-1.868-.717L3.381 6.55l1.867.717-.359.933 1.945.747C7.296 8.167 7.928 7.502 8.68 7l-.847-1.903-.914.407-.813-1.827L9.76 2.051l.813 1.827-.913.407.847 1.902C10.984 6.065 11.485 6 12 6c.406 0 .803.04 1.187.117l.745-1.945L13 3.815l.717-1.868zm-3.583 11.285c-.276.478-.112 1.09.366 1.366s1.09.112 1.366-.366.112-1.09-.366-1.366-1.09-.112-1.366.366zM14 11c-.552 0-1 .448-1 1s.448 1 1 1 1-.448 1-1-.448-1-1-1zm-3.5-1.598c-.478.276-.642.888-.366 1.366.276.478.888.642 1.366.366.478-.276.642-.888.366-1.366-.276-.478-.888-.642-1.366-.366z"/>
    </g>
</svg>
